X:1
T:Stand up, my soul, shake off thy fears
T:Stand up, my soul, shake off thy fears - Amity (John Massey)
C:John Massey
Z:p1, Sacred Music. Twenty
Z:Six Psalm Tunes in Various
Z:Metres & Three Anthems,
Z:Manchester: [c1810]
%%score [ 1 2 3 4 ]
L:1/8
M:2/2
K:Eb
V:1 treble nm="Soprano" snm="S."
V:2 treble nm="Alto" snm="A."
V:3 treble-8 transpose=-12 nm="Tenor" snm="T."
V:4 bass nm="Bass" snm="B."
V:1
 B4 | (G3 F E2) G2 | (B2 cd e2) c2 | (B2 cA G2) F2 | E8 | (EFGA) B2 c2 | (B2 e2 d2) c2 | B4 =A4 | %8
w: Then|let _ _ my|soul _ _ _ march|bold- * * * ly|on,|Press _ _ _ for- ward|to _ _ the|heav’n- ly|
w: Stand|up, _ _ my|soul, _ _ _ shake|off _ _ _ thy|fears,|And _ _ _ gird the|gos- * * pel|ar- mour|
w: Hell|and _ _ thy|sins _ _ _ re-|sist _ _ _ thy|course,|But _ _ _ hell and|sin _ _ are|van- quish’d|
 B8 | z4 B4 | G2 E2 G2 B2 | e6 d2 | e4 z2 d2 | e2 f2 g2 f2 | (e2 dc B2) =A2 | B8 | z4 B4 | c4 d4 | %18
w: gate;|There|peace and joy e-|ter- nal|reign, there|peace and joy e-|ter- * * * nal|reign,|And|glitt- ’ring|
w: on:|March|to the gates of|end- less|joy, march|to the gates of|end- * * * less|joy,|Where|thy great|
w: foes;|Thy|Je- sus nail’d them|to the|cross, thy|Je- sus nail’d them|to _ _ _ the|cross,|And|sung the|
 (edef e2) A2 | G4 F4 | E8 |] %21
w: robes _ _ _ _ for|conqu- ’rors|wait.|
w: cap- * * * * tain|Sa- viour’s|gone.|
w: tri- * * * * umph|when he|rose.|
V:2
 E4 | E6 E2 | (E2 F2 G2) E2 | E6 D2 | E8 | G4 F2 F2 | (D2 E2 F2) G2 | F4 F4 | F8 | z8 | z8 | z8 | %12
w: Then|let my|soul _ _ march|bold- ly|on,|Press for- ward|to _ _ the|heav’n- ly|gate;||||
w: Stand|up, my|soul, _ _ shake|off thy|fears,|And gird the|gos- * * pel|ar- mour|on:||||
w: Hell|and thy|sins _ _ re-|sist thy|course,|But hell and|sin _ _ are|van- quish’d|foes;||||
 z4 z2 F2 | G2 A2 B2 A2 | (G4 F2) F2 | F8 | z4 E4 | E4 F4 | (GFGA G2) F2 | E4 D4 | E8 |] %21
w: There|peace and joy e-|ter- * nal|reign,|And|glitt- ’ring|robes _ _ _ _ for|conqu- ’rors|wait.|
w: March|to the gates of|end- * less|joy,|Where|thy great|cap- * * * * tain|Sa- viour’s|gone.|
w: Thy|Je- sus nail’d them|to _ the|cross,|And|sung the|tri- * * * * umph|when he|rose.|
V:3
 G4 | B6 B2 | (G2 A2 B2) E2 | (GBec B2) A2 | G8 | B4 B2 =A2 | (B2 c2 d2) e2 | d4 c4 | B8 | z8 | %10
w: Then|let my|soul _ _ march|bold- * * * * ly|on,|Press for- ward|to _ _ the|heav’n- ly|gate;||
w: Stand|up, my|soul, _ _ shake|off _ _ _ _ thy|fears,|And gird the|gos- * * pel|ar- mour|on:||
w: Hell|and thy|sins _ _ re-|sist _ _ _ _ thy|course,|But hell and|sin _ _ are|van- quish’d|foes;||
 z8 | z4 z2 B2 | G2 E2 G2 B2 | (e6 f2 | g2 fe d2) c2 | d8 | z4 e4 | c4 B4 | B6 c2 | B6 A2 | G8 |] %21
w: |There|peace and joy e-|ter- *|* * * * nal|reign,|And|glitt- ’ring|robes for|conqu- ’rors|wait.|
w: |March|to the gates of|end- *|* * * * less|joy,|Where|thy great|cap- tain|Sa- viour’s|gone.|
w: |Thy|Je- sus nail’d them|to _|_ _ _ _ the|cross,|And|sung the|tri- umph|when he|rose.|
V:4
 E,4 | E,6 E,2 |"^6" (G,2"^5""^6" F,2 E,2) A,2 |"^6" (G,2 A,2"^64" B,2)"^753" B,,2 | E,8 | %5
w: Then|let my|soul _ _ march|bold- * * ly|on,|
w: Stand|up, my|soul, _ _ shake|off _ _ thy|fears,|
w: Hell|and thy|sins _ _ re-|sist _ _ thy|course,|
 E,4"^6" D,2"^§" F,2 | (B,2"^53" =A,2 B,2)"^6" E,2 |"^64" F,4"^5E" F,4 | B,,8 | z8 | z4 z2 B,2 | %11
w: Press for- ward|to _ _ the|heav’n- ly|gate;||There|
w: And gird the|gos- * * pel|ar- mour|on:||March|
w: But hell and|sin _ _ are|van- quish’d|foes;||Thy|
"^6" G,2 E,2"^6" G,2 B,2 | E,2 E,2 E,2 B,2 |"^6" G,2"^8" F,2 E,2"^7" B,,2 | %14
w: peace and joy e-|ter- nal reign, there|peace and joy e-|
w: to the gates of|end- less joy, march|to the gates of|
w: Je- sus nail’d them|to the cross, thy|Je- sus nail’d them|
"^53" (E,4"^64""^64" F,2)"^5§" F,2 | B,,8 | %16
w: ter- * nal|reign,|
w: end- * less|joy,|
w: to _ the|cross,|
"^Notes: Original order of staves is Tenor - Alto - Air - Bass, with the Alto part printed in the treble clef an octave abovesounding pitch. Only the first verse of the text is given in the source: three further verses have been added editorially." z4"^6" G,4 | %17
w: And|
w: Where|
w: And|
 (A,2"^75" F,2) (B,2"^42" A,2) |"^6" G,6"^6" A,2 |"^64" B,4"^53""^7" B,,4 | E,8 |] %21
w: glitt- * ’ring _|robes for|conqu- ’rors|wait.|
w: thy _ great _|cap- tain|Sa- viour’s|gone.|
w: sung _ the _|tri- umph|when he|rose.|

